apps/www/public/images/realtime/example-apps/dark/text-editor.svg

<svg width="360" height="210" viewBox="0 0 360 210" fill="none" xmlns="http://www.w3.org/2000/svg">
<g clip-path="url(#clip0_929_17958)">
<path d="M315 230.5H315.5V230V24C315.5 21.5147 313.485 19.5 311 19.5H48C45.5147 19.5 43.5 21.5147 43.5 24V230V230.5H44H315Z" fill="#343434" stroke="#3E3E3E"/>
<path d="M44 24C44 21.7909 45.7909 20 48 20H311C313.209 20 315 21.7909 315 24V36H44V24Z" fill="#2E2E2E"/>
<path d="M55.5273 31.0305C57.4754 31.0305 59.0546 29.4567 59.0546 27.5153C59.0546 25.5738 57.4754 24 55.5273 24C53.5792 24 52 25.5738 52 27.5153C52 29.4567 53.5792 31.0305 55.5273 31.0305Z" fill="#3E3E3E"/>
<path d="M65.3779 31.0305C67.326 31.0305 68.9052 29.4567 68.9052 27.5153C68.9052 25.5738 67.326 24 65.3779 24C63.4298 24 61.8506 25.5738 61.8506 27.5153C61.8506 29.4567 63.4298 31.0305 65.3779 31.0305Z" fill="#3E3E3E"/>
<path d="M75.2221 31.0305C77.1702 31.0305 78.7495 29.4567 78.7495 27.5153C78.7495 25.5738 77.1702 24 75.2221 24C73.2741 24 71.6948 25.5738 71.6948 27.5153C71.6948 29.4567 73.2741 31.0305 75.2221 31.0305Z" fill="#3E3E3E"/>
<path fill-rule="evenodd" clip-rule="evenodd" d="M106.76 135.25H263.115V149.465H106.76V135.25ZM288.378 163.68V149.465H64.0215V162.854V163.68V177.069H176.83V163.68H288.378Z" fill="#3FCF8E"/>
<path d="M99.9963 165.954H72.4083C70.2762 165.954 68.5479 167.675 68.5479 169.798C68.5479 171.921 70.2762 173.643 72.4083 173.643H99.9963C102.128 173.643 103.857 171.921 103.857 169.798C103.857 167.675 102.128 165.954 99.9963 165.954Z" fill="white"/>
<path d="M165.784 165.954H112.476C110.344 165.954 108.615 167.675 108.615 169.798C108.615 171.921 110.344 173.643 112.476 173.643H165.784C167.916 173.643 169.644 171.921 169.644 169.798C169.644 167.675 167.916 165.954 165.784 165.954Z" fill="white"/>
<path d="M125.438 152.112H97.8497C95.7176 152.112 93.9893 153.833 93.9893 155.957C93.9893 158.08 95.7176 159.801 97.8497 159.801H125.438C127.57 159.801 129.298 158.08 129.298 155.957C129.298 153.833 127.57 152.112 125.438 152.112Z" fill="white"/>
<path d="M279.3 152.112H136.923C134.791 152.112 133.062 153.833 133.062 155.957C133.062 158.08 134.791 159.801 136.923 159.801H279.3C281.432 159.801 283.161 158.08 283.161 155.957C283.161 153.833 281.432 152.112 279.3 152.112Z" fill="white"/>
<path d="M253.866 138.276H122.79C120.658 138.276 118.93 139.998 118.93 142.121C118.93 144.244 120.658 145.965 122.79 145.965H253.866C255.998 145.965 257.726 144.244 257.726 142.121C257.726 139.998 255.998 138.276 253.866 138.276Z" fill="white"/>
<path d="M99.9963 138.276H72.4083C70.2762 138.276 68.5479 139.997 68.5479 142.12C68.5479 144.244 70.2762 145.965 72.4083 145.965H99.9963C102.128 145.965 103.857 144.244 103.857 142.12C103.857 139.997 102.128 138.276 99.9963 138.276Z" fill="#505050"/>
<path d="M120.553 80.3723H92.9649C90.8329 80.3723 89.1045 82.0934 89.1045 84.2166C89.1045 86.3397 90.8329 88.0608 92.9649 88.0608H120.553C122.685 88.0608 124.413 86.3397 124.413 84.2166C124.413 82.0934 122.685 80.3723 120.553 80.3723Z" fill="#505050"/>
<path d="M235.665 80.3723H132.04C129.908 80.3723 128.18 82.0934 128.18 84.2166C128.18 86.3397 129.908 88.0608 132.04 88.0608H235.665C237.797 88.0608 239.525 86.3397 239.525 84.2166C239.525 82.0934 237.797 80.3723 235.665 80.3723Z" fill="#505050"/>
<path d="M120.553 66.5366H92.9649C90.8329 66.5366 89.1045 68.2578 89.1045 70.3809C89.1045 72.504 90.8329 74.2251 92.9649 74.2251H120.553C122.685 74.2251 124.413 72.504 124.413 70.3809C124.413 68.2578 122.685 66.5366 120.553 66.5366Z" fill="#505050"/>
<path d="M99.1389 95.1682H71.5509C69.4188 95.1682 67.6904 96.8893 67.6904 99.0125C67.6904 101.136 69.4188 102.857 71.5509 102.857H99.1389C101.271 102.857 102.999 101.136 102.999 99.0125C102.999 96.8893 101.271 95.1682 99.1389 95.1682Z" fill="#505050"/>
<path d="M205.596 66.5366H132.04C129.908 66.5366 128.18 68.2578 128.18 70.3809C128.18 72.504 129.908 74.2251 132.04 74.2251H205.596C207.728 74.2251 209.457 72.504 209.457 70.3809C209.457 68.2578 207.728 66.5366 205.596 66.5366Z" fill="#505050"/>
<path d="M243.564 66.5366H215.976C213.844 66.5366 212.115 68.2578 212.115 70.3809C212.115 72.504 213.844 74.2251 215.976 74.2251H243.564C245.696 74.2251 247.424 72.504 247.424 70.3809C247.424 68.2578 245.696 66.5366 243.564 66.5366Z" fill="#505050"/>
<path d="M280.705 80.3723H253.117C250.985 80.3723 249.257 82.0934 249.257 84.2166C249.257 86.3397 250.985 88.0608 253.117 88.0608H280.705C282.837 88.0608 284.566 86.3397 284.566 84.2166C284.566 82.0934 282.837 80.3723 280.705 80.3723Z" fill="#505050"/>
<path d="M99.9963 52.6948H72.4083C70.2762 52.6948 68.5479 54.416 68.5479 56.5391C68.5479 58.6622 70.2762 60.3833 72.4083 60.3833H99.9963C102.128 60.3833 103.857 58.6622 103.857 56.5391C103.857 54.416 102.128 52.6948 99.9963 52.6948Z" fill="#505050"/>
<path d="M253.866 52.6948H111.488C109.356 52.6948 107.628 54.416 107.628 56.5391C107.628 58.6622 109.356 60.3833 111.488 60.3833H253.866C255.998 60.3833 257.726 58.6622 257.726 56.5391C257.726 54.416 255.998 52.6948 253.866 52.6948Z" fill="#505050"/>
<path d="M120.553 196.842H92.9649C90.8329 196.842 89.1045 198.563 89.1045 200.686C89.1045 202.809 90.8329 204.53 92.9649 204.53H120.553C122.685 204.53 124.413 202.809 124.413 200.686C124.413 198.563 122.685 196.842 120.553 196.842Z" fill="#505050"/>
<path d="M205.596 196.842H132.04C129.908 196.842 128.18 198.563 128.18 200.686C128.18 202.809 129.908 204.53 132.04 204.53H205.596C207.728 204.53 209.457 202.809 209.457 200.686C209.457 198.563 207.728 196.842 205.596 196.842Z" fill="#505050"/>
<path d="M243.564 196.842H215.976C213.844 196.842 212.115 198.563 212.115 200.686C212.115 202.809 213.844 204.53 215.976 204.53H243.564C245.696 204.53 247.424 202.809 247.424 200.686C247.424 198.563 245.696 196.842 243.564 196.842Z" fill="#505050"/>
<path d="M99.9963 183H72.4083C70.2762 183 68.5479 184.721 68.5479 186.844C68.5479 188.967 70.2762 190.689 72.4083 190.689H99.9963C102.128 190.689 103.857 188.967 103.857 186.844C103.857 184.721 102.128 183 99.9963 183Z" fill="#505050"/>
<path d="M253.866 183H111.488C109.356 183 107.628 184.721 107.628 186.844C107.628 188.967 109.356 190.689 111.488 190.689H253.866C255.998 190.689 257.726 188.967 257.726 186.844C257.726 184.721 255.998 183 253.866 183Z" fill="#505050"/>
<path d="M26 107.51V126.089C26 126.853 26.6246 127.476 27.3919 127.476H110.715C111.482 127.476 112.107 128.098 112.107 128.863V143.938C112.107 145.046 113.011 145.947 114.123 145.947C115.236 145.947 116.14 145.046 116.14 143.938V107.51C116.14 106.746 115.515 106.123 114.748 106.123H27.3919C26.6246 106.123 26 106.746 26 107.51Z" fill="#A0A0A0"/>
<path d="M76.7156 120.54H104.304C106.436 120.54 108.164 118.819 108.164 116.696C108.164 114.573 106.436 112.852 104.304 112.852H76.7156C74.5836 112.852 72.8552 114.573 72.8552 116.696C72.8552 118.819 74.5836 120.54 76.7156 120.54Z" fill="#3E3E3E"/>
<path d="M38.2361 120.54H65.8242C67.9562 120.54 69.6846 118.819 69.6846 116.696C69.6846 114.573 67.9562 112.852 65.8242 112.852H38.2361C36.1041 112.852 34.3757 114.573 34.3757 116.696C34.3757 118.819 36.1041 120.54 38.2361 120.54Z" fill="#3E3E3E"/>
<path d="M333.591 49.3871V67.9652C333.591 68.7299 332.967 69.3524 332.199 69.3524H248.876C248.109 69.3524 247.484 69.9748 247.484 70.7395V85.8142C247.484 86.9227 246.58 87.8238 245.468 87.8238C244.355 87.8238 243.451 86.9227 243.451 85.8142V49.3871C243.451 48.6224 244.076 48 244.843 48H332.199C332.967 48 333.591 48.6224 333.591 49.3871Z" fill="#3FCF8E"/>
<path d="M282.876 54.728H255.288C253.156 54.728 251.428 56.4492 251.428 58.5723C251.428 60.6954 253.156 62.4165 255.288 62.4165H282.876C285.008 62.4165 286.737 60.6954 286.737 58.5723C286.737 56.4492 285.008 54.728 282.876 54.728Z" fill="white"/>
<path d="M321.362 54.728H293.774C291.641 54.728 289.913 56.4492 289.913 58.5723C289.913 60.6954 291.641 62.4165 293.774 62.4165H321.362C323.494 62.4165 325.222 60.6954 325.222 58.5723C325.222 56.4492 323.494 54.728 321.362 54.728Z" fill="white"/>
</g>
<defs>
<clipPath id="clip0_929_17958">
<rect width="360" height="210" fill="white"/>
</clipPath>
</defs>
</svg>

<svg xmlns="http://www.w3.org/2000/svg" width="360" height="210" fill="none" viewBox="0 0 360 210"><g clip-path="url(#a)"><path fill="#343434" stroke="#3e3e3e" d="M315 230.5h.5V24a4.5 4.5 0 0 0-4.5-4.5H48a4.5 4.5 0 0 0-4.5 4.5v206.5H315Z"/><path fill="#2e2e2e" d="M44 24a4 4 0 0 1 4-4h263a4 4 0 0 1 4 4v12H44z"/><path fill="#3e3e3e" d="M55.527 31.03a3.52 3.52 0 0 0 3.528-3.515A3.52 3.52 0 0 0 55.527 24 3.52 3.52 0 0 0 52 27.515a3.52 3.52 0 0 0 3.527 3.515M65.378 31.03a3.52 3.52 0 0 0 3.527-3.515A3.52 3.52 0 0 0 65.378 24a3.52 3.52 0 0 0-3.527 3.515 3.52 3.52 0 0 0 3.527 3.515M75.222 31.03a3.52 3.52 0 0 0 3.528-3.515A3.52 3.52 0 0 0 75.221 24a3.52 3.52 0 0 0-3.527 3.515 3.52 3.52 0 0 0 3.527 3.515"/><path fill="#3fcf8e" fill-rule="evenodd" d="M106.76 135.25h156.355v14.215H106.76zm181.618 28.43v-14.215H64.022v27.604H176.83V163.68z" clip-rule="evenodd"/><path fill="#fff" d="M99.996 165.954H72.408a3.85 3.85 0 0 0-3.86 3.844 3.853 3.853 0 0 0 3.86 3.845h27.588a3.854 3.854 0 0 0 3.861-3.845 3.853 3.853 0 0 0-3.86-3.844M165.784 165.954h-53.308a3.853 3.853 0 0 0-3.861 3.844 3.854 3.854 0 0 0 3.861 3.845h53.308a3.853 3.853 0 0 0 3.86-3.845 3.85 3.85 0 0 0-3.86-3.844M125.438 152.112H97.85a3.85 3.85 0 0 0-3.86 3.845 3.85 3.85 0 0 0 3.86 3.844h27.588a3.85 3.85 0 0 0 3.86-3.844 3.85 3.85 0 0 0-3.86-3.845M279.3 152.112H136.923a3.853 3.853 0 0 0-3.861 3.845 3.853 3.853 0 0 0 3.861 3.844H279.3a3.853 3.853 0 0 0 3.861-3.844 3.853 3.853 0 0 0-3.861-3.845M253.866 138.276H122.79a3.853 3.853 0 0 0-3.86 3.845 3.85 3.85 0 0 0 3.86 3.844h131.076a3.85 3.85 0 0 0 3.86-3.844 3.853 3.853 0 0 0-3.86-3.845"/><path fill="#505050" d="M99.996 138.276H72.408a3.85 3.85 0 0 0-3.86 3.844 3.85 3.85 0 0 0 3.86 3.845h27.588a3.853 3.853 0 0 0 3.861-3.845 3.853 3.853 0 0 0-3.86-3.844M120.553 80.372H92.965a3.85 3.85 0 0 0-3.86 3.845 3.85 3.85 0 0 0 3.86 3.844h27.588a3.85 3.85 0 0 0 3.86-3.844 3.85 3.85 0 0 0-3.86-3.845M235.665 80.372H132.04a3.85 3.85 0 0 0-3.86 3.845 3.85 3.85 0 0 0 3.86 3.844h103.625a3.85 3.85 0 0 0 3.86-3.844 3.85 3.85 0 0 0-3.86-3.845M120.553 66.537H92.965a3.85 3.85 0 0 0-3.86 3.844 3.85 3.85 0 0 0 3.86 3.844h27.588a3.85 3.85 0 0 0 3.86-3.844 3.85 3.85 0 0 0-3.86-3.844M99.139 95.168H71.55a3.85 3.85 0 0 0-3.86 3.844 3.85 3.85 0 0 0 3.86 3.845h27.588a3.85 3.85 0 0 0 3.86-3.844 3.85 3.85 0 0 0-3.86-3.845M205.596 66.537H132.04a3.85 3.85 0 0 0-3.86 3.844 3.85 3.85 0 0 0 3.86 3.844h73.556a3.853 3.853 0 0 0 3.861-3.844 3.853 3.853 0 0 0-3.861-3.844M243.564 66.537h-27.588a3.853 3.853 0 0 0-3.861 3.844 3.853 3.853 0 0 0 3.861 3.844h27.588a3.85 3.85 0 0 0 3.86-3.844 3.85 3.85 0 0 0-3.86-3.844M280.705 80.372h-27.588a3.85 3.85 0 0 0-3.86 3.845 3.85 3.85 0 0 0 3.86 3.844h27.588a3.853 3.853 0 0 0 3.861-3.844 3.853 3.853 0 0 0-3.861-3.845M99.996 52.695H72.408a3.85 3.85 0 0 0-3.86 3.844 3.85 3.85 0 0 0 3.86 3.844h27.588a3.853 3.853 0 0 0 3.861-3.844 3.853 3.853 0 0 0-3.86-3.844M253.866 52.695H111.488a3.85 3.85 0 0 0-3.86 3.844 3.85 3.85 0 0 0 3.86 3.844h142.378a3.85 3.85 0 0 0 3.86-3.844 3.85 3.85 0 0 0-3.86-3.844M120.553 196.842H92.965a3.85 3.85 0 0 0-3.86 3.844 3.85 3.85 0 0 0 3.86 3.844h27.588a3.85 3.85 0 0 0 3.86-3.844 3.85 3.85 0 0 0-3.86-3.844M205.596 196.842H132.04a3.85 3.85 0 0 0-3.86 3.844 3.85 3.85 0 0 0 3.86 3.844h73.556a3.853 3.853 0 0 0 3.861-3.844 3.853 3.853 0 0 0-3.861-3.844M243.564 196.842h-27.588a3.853 3.853 0 0 0-3.861 3.844 3.853 3.853 0 0 0 3.861 3.844h27.588a3.85 3.85 0 0 0 3.86-3.844 3.85 3.85 0 0 0-3.86-3.844M99.996 183H72.408a3.85 3.85 0 0 0-3.86 3.844 3.853 3.853 0 0 0 3.86 3.845h27.588a3.854 3.854 0 0 0 3.861-3.845 3.853 3.853 0 0 0-3.86-3.844M253.866 183H111.488a3.85 3.85 0 0 0-3.86 3.844 3.853 3.853 0 0 0 3.86 3.845h142.378a3.853 3.853 0 0 0 3.86-3.845 3.85 3.85 0 0 0-3.86-3.844"/><path fill="#a0a0a0" d="M26 107.51v18.579c0 .764.625 1.387 1.392 1.387h83.323c.767 0 1.392.622 1.392 1.387v15.075c0 1.108.904 2.009 2.016 2.009a2.015 2.015 0 0 0 2.017-2.009V107.51c0-.764-.625-1.387-1.392-1.387H27.392c-.767 0-1.392.623-1.392 1.387"/><path fill="#3e3e3e" d="M76.716 120.54h27.588a3.85 3.85 0 0 0 3.86-3.844 3.85 3.85 0 0 0-3.86-3.844H76.716a3.85 3.85 0 0 0-3.86 3.844 3.85 3.85 0 0 0 3.86 3.844M38.236 120.54h27.588a3.85 3.85 0 0 0 3.86-3.844 3.85 3.85 0 0 0-3.86-3.844H38.236a3.85 3.85 0 0 0-3.86 3.844 3.85 3.85 0 0 0 3.86 3.844"/><path fill="#3fcf8e" d="M333.591 49.387v18.578c0 .765-.624 1.387-1.392 1.387h-83.323c-.767 0-1.392.623-1.392 1.388v15.074c0 1.109-.904 2.01-2.016 2.01a2.015 2.015 0 0 1-2.017-2.01V49.387c0-.765.625-1.387 1.392-1.387h87.356a1.39 1.39 0 0 1 1.392 1.387"/><path fill="#fff" d="M282.876 54.728h-27.588a3.85 3.85 0 0 0-3.86 3.844 3.85 3.85 0 0 0 3.86 3.844h27.588a3.853 3.853 0 0 0 3.861-3.844 3.853 3.853 0 0 0-3.861-3.844M321.362 54.728h-27.588a3.85 3.85 0 0 0-3.861 3.844 3.85 3.85 0 0 0 3.861 3.844h27.588a3.85 3.85 0 0 0 3.86-3.844 3.85 3.85 0 0 0-3.86-3.844"/></g><defs><clipPath id="a"><path fill="#fff" d="M0 0h360v210H0z"/></clipPath></defs></svg>
